svg/fluentui-system-icons/ic_fluent_text_direction_horizontal_left_20_regular.svg

<svg width="20" height="20" viewBox="0 0 20 20" fill="none" xmlns="http://www.w3.org/2000/svg">
<path d="M13.5 3C13.2916 3 13.105 3.12929 13.0318 3.32444L10.0318 11.3244C9.93486 11.583 10.0659 11.8712 10.3244 11.9682C10.583 12.0651 10.8712 11.9341 10.9682 11.6756L11.9715 9H15.0285L16.0318 11.6756C16.1288 11.9341 16.417 12.0651 16.6755 11.9682C16.9341 11.8712 17.0651 11.583 16.9682 11.3244L13.9682 3.32444C13.895 3.12929 13.7084 3 13.5 3ZM13.5 4.924L14.6535 8H12.3465L13.5 4.924ZM5.14645 4.14645C5.34171 3.95118 5.65829 3.95118 5.85355 4.14645C6.04882 4.34171 6.04882 4.65829 5.85355 4.85355L4.70711 6H9.5C9.77614 6 10 6.22386 10 6.5C10 6.77614 9.77614 7 9.5 7H4.70711L5.85355 8.14645C6.04882 8.34171 6.04882 8.65829 5.85355 8.85355C5.65829 9.04882 5.34171 9.04882 5.14645 8.85355L3.14645 6.85355C2.95118 6.65829 2.95118 6.34171 3.14645 6.14645L5.14645 4.14645ZM5.14645 12.1464C5.34171 11.9512 5.65829 11.9512 5.85355 12.1464C6.04882 12.3417 6.04882 12.6583 5.85355 12.8536L4.70711 14H16.5C16.7761 14 17 14.2239 17 14.5C17 14.7761 16.7761 15 16.5 15H4.70711L5.85355 16.1464C6.04882 16.3417 6.04882 16.6583 5.85355 16.8536C5.65829 17.0488 5.34171 17.0488 5.14645 16.8536L3.14645 14.8536C2.95118 14.6583 2.95118 14.3417 3.14645 14.1464L5.14645 12.1464Z" fill="#212121"/>
</svg>

<svg xmlns="http://www.w3.org/2000/svg" width="20" height="20"><path d="M13.5 3a.5.5 0 0 0-.468.324l-3 8a.5.5 0 0 0 .936.352L11.972 9h3.056l1.004 2.676a.5.5 0 0 0 .936-.352l-3-8A.5.5 0 0 0 13.5 3Zm0 1.924L14.653 8h-2.306L13.5 4.924Zm-8.354-.778a.5.5 0 1 1 .708.708L4.707 6H9.5a.5.5 0 0 1 0 1H4.707l1.147 1.146a.5.5 0 1 1-.708.708l-2-2a.5.5 0 0 1 0-.708l2-2Zm0 8a.5.5 0 0 1 .708.708L4.707 14H16.5a.5.5 0 0 1 0 1H4.707l1.147 1.146a.5.5 0 0 1-.708.708l-2-2a.5.5 0 0 1 0-.708l2-2Z"/></svg>
